X:792
T:Rowan Tree, The
C:Joe Buchanan's Scottish Tome - Page 538.3
I:538 3
Z:Carl Allison
R:Slow Air
L:1/4
M:3/4
K:D
D E | "D"F2 F | F2 E | "D"F A2 | "D7"A2 d | "G"B2 A | B2 d | "G"B A2 | A2 "A7"(D/E/) |
"D"F2 F | "A7"F2 E | "D7"F A2 | "G"AB2  | "D"A2 F | "A7"E2 D | "D"D3 | D2 A |
"D"A2 d | "Bm"d2 c | "G"c2 B | B2 d | "D"A2 A | "Bm"B ((3A/G/F/) | "E7"F2 E | "A7"D2 E |
"D"F2 F | "A7"F2 E | "D7"F A2 | "G"B2 A | "D"A2 F | "A7"E2 D | "Bm" D3 | D2 :|

